src/assets/icons/delete.svg

<svg width="36" height="36" viewBox="0 0 36 36" fill="none" xmlns="http://www.w3.org/2000/svg">
<path fill-rule="evenodd" clip-rule="evenodd" d="M18 36C27.9411 36 36 27.9411 36 18C36 8.05888 27.9411 0 18 0C8.05888 0 0 8.05888 0 18C0 27.9411 8.05888 36 18 36ZM17.5386 16.0418L22.0979 11.4824C22.6386 10.9417 23.5153 10.9417 24.056 11.4824C24.5968 12.0232 24.5968 12.8999 24.056 13.4406L19.4967 17.9999L24.0562 22.5594C24.597 23.1002 24.597 23.9768 24.0562 24.5176C23.5155 25.0583 22.6388 25.0583 22.0981 24.5176L17.5386 19.9581L12.9791 24.5175C12.4384 25.0582 11.5617 25.0582 11.021 24.5175C10.4802 23.9768 10.4802 23.1001 11.021 22.5594L15.5804 17.9999L11.0212 13.4407C10.4805 12.8999 10.4805 12.0232 11.0212 11.4825C11.5619 10.9418 12.4386 10.9418 12.9793 11.4825L17.5386 16.0418ZM2.76914 18C2.76914 26.4117 9.58819 33.2308 17.9999 33.2308C26.4116 33.2308 33.2307 26.4117 33.2307 18C33.2307 9.58827 26.4116 2.76923 17.9999 2.76923C9.58819 2.76923 2.76914 9.58827 2.76914 18Z" fill="white"/>
</svg>

<svg xmlns="http://www.w3.org/2000/svg" width="36" height="36" fill="none"><path fill="#fff" fill-rule="evenodd" d="M18 36c9.941 0 18-8.059 18-18S27.941 0 18 0 0 8.059 0 18s8.059 18 18 18Zm-.461-19.958 4.559-4.56a1.385 1.385 0 1 1 1.958 1.959L19.496 18l4.56 4.56a1.385 1.385 0 1 1-1.958 1.958l-4.56-4.56-4.559 4.56a1.385 1.385 0 0 1-1.958-1.959l4.56-4.56-4.56-4.558a1.385 1.385 0 0 1 1.958-1.959l4.56 4.56ZM2.769 18c0 8.412 6.82 15.23 15.23 15.23 8.413 0 15.232-6.818 15.232-15.23S26.41 2.77 18 2.77C9.588 2.77 2.77 9.587 2.77 18Z" clip-rule="evenodd"/></svg>
